src/icons/solid/symbols/omni-channel.svg

<svg width="24" height="24" viewBox="0 0 24 24" fill="none" xmlns="http://www.w3.org/2000/svg">
<g clip-path="url(#clip0_6312_1491)">
<path d="M16.75 1C18.2688 1 19.5 2.23122 19.5 3.75C19.5 5.26878 18.2688 6.5 16.75 6.5C16.4598 6.5 16.1805 6.45374 15.918 6.37012L14.4785 8.8623C15.218 9.4472 15.7451 10.2871 15.9277 11.25H17.6074C17.9339 10.0961 18.9915 9.25 20.25 9.25C21.7688 9.25 23 10.4812 23 12C23 13.5188 21.7688 14.75 20.25 14.75C18.9915 14.75 17.9339 13.9039 17.6074 12.75H15.9277C15.7464 13.7053 15.2247 14.5379 14.4941 15.1221L15.9385 17.623C16.195 17.5437 16.4674 17.5 16.75 17.5C18.2688 17.5 19.5 18.7312 19.5 20.25C19.5 21.7688 18.2688 23 16.75 23C15.2312 23 14 21.7688 14 20.25C14 19.5577 14.2571 18.9265 14.6797 18.4434L13.167 15.8232C12.7976 15.9365 12.4064 16 12 16C11.6235 16 11.2603 15.9444 10.915 15.8467L9.37793 18.5098C9.76632 18.9838 10 19.5894 10 20.25C10 21.7688 8.76878 23 7.25 23C5.73122 23 4.5 21.7688 4.5 20.25C4.5 18.7312 5.73122 17.5 7.25 17.5C7.56243 17.5 7.86196 17.5539 8.1416 17.6504L9.57031 15.1758C8.80526 14.5896 8.25892 13.734 8.07227 12.75H6.39258C6.06613 13.9039 5.00848 14.75 3.75 14.75C2.23122 14.75 1 13.5188 1 12C1 10.4812 2.23122 9.25 3.75 9.25C5.00848 9.25 6.06613 10.0961 6.39258 11.25H8.07227C8.26171 10.2513 8.82144 9.38458 9.60449 8.79785L8.18164 6.33203C7.89054 6.43832 7.57788 6.5 7.25 6.5C5.73122 6.5 4.5 5.26878 4.5 3.75C4.5 2.23122 5.73122 1 7.25 1C8.76878 1 10 2.23122 10 3.75C10 4.39362 9.77618 4.98313 9.40527 5.45117L10.957 8.13965C11.2897 8.04982 11.639 8 12 8C12.3991 8 12.7837 8.06115 13.1475 8.16992L14.665 5.53906C14.2515 5.05816 14 4.43407 14 3.75C14 2.23122 15.2312 1 16.75 1Z" fill="#3C3B44"/>
</g>
<defs>
<clipPath id="clip0_6312_1491">
<rect width="24" height="24" fill="white"/>
</clipPath>
</defs>
</svg>

<svg xmlns="http://www.w3.org/2000/svg" width="24" height="24" fill="none" viewBox="0 0 24 24"><g clip-path="url(#a)"><path fill="currentColor" d="M16.75 1a2.75 2.75 0 1 1-.832 5.37l-1.44 2.492a4 4 0 0 1 1.45 2.388h1.68A2.747 2.747 0 0 1 23 12a2.747 2.747 0 0 1-5.393.75h-1.68a4 4 0 0 1-1.433 2.372l1.444 2.501q.387-.122.812-.123a2.75 2.75 0 1 1-2.07.943l-1.513-2.62a3.95 3.95 0 0 1-2.252.024L9.378 18.51a2.75 2.75 0 1 1-1.236-.86l1.428-2.474a4 4 0 0 1-1.498-2.426h-1.68A2.747 2.747 0 0 1 1 12a2.747 2.747 0 0 1 5.393-.75h1.68a4 4 0 0 1 1.531-2.452L8.182 6.332a2.7 2.7 0 0 1-.932.168A2.75 2.75 0 1 1 10 3.75c0 .644-.224 1.233-.595 1.701l1.552 2.689a4 4 0 0 1 2.191.03l1.517-2.63A2.73 2.73 0 0 1 14 3.75 2.75 2.75 0 0 1 16.75 1"/></g><defs><clipPath id="a"><path fill="currentColor" d="M0 0h24v24H0z"/></clipPath></defs></svg>
